src/assets/img/outline-text/contact.svg

<svg width="514" height="77" viewBox="0 0 514 77" fill="none" xmlns="http://www.w3.org/2000/svg">
<mask id="path-1-outside-1_3078_91628" maskUnits="userSpaceOnUse" x="0.132812" y="0.640137" width="514" height="76" fill="black">
<rect fill="white" x="0.132812" y="0.640137" width="514" height="76"/>
<path d="M70.3608 52.1841C69.0648 57.7281 66.8328 62.1921 63.6648 65.5761C60.5688 68.9601 56.7888 71.4081 52.3248 72.9201C47.8608 74.3601 42.8928 75.0801 37.4208 75.0801C29.9328 75.0801 23.4528 73.6401 17.9808 70.7601C12.5808 67.8801 8.40481 63.7041 5.45281 58.2321C2.57281 52.7601 1.13281 46.1361 1.13281 38.3601C1.13281 30.5841 2.57281 23.9601 5.45281 18.4881C8.40481 13.0161 12.5808 8.84014 17.9808 5.96013C23.4528 3.08014 29.9328 1.64014 37.4208 1.64014C42.6768 1.64014 47.5728 2.39614 52.1088 3.90813C56.6448 5.34814 60.4608 7.65214 63.5568 10.8201C66.7248 13.9881 68.8128 18.1281 69.8208 23.2401L48.2208 31.6641C47.6448 26.9841 46.4568 23.9601 44.6568 22.5921C42.9288 21.2241 40.7328 20.5401 38.0688 20.5401C35.6208 20.5401 33.5328 21.1881 31.8048 22.4841C30.1488 23.7081 28.8888 25.6521 28.0248 28.3161C27.2328 30.9081 26.8368 34.2561 26.8368 38.3601C26.8368 42.3921 27.1968 45.7401 27.9168 48.4041C28.7088 51.0681 29.9688 53.0481 31.6968 54.3441C33.4248 55.5681 35.7288 56.1801 38.6088 56.1801C41.2008 56.1801 43.3248 55.4241 44.9808 53.9121C46.6368 52.3281 47.6808 49.8441 48.1128 46.4601L70.3608 52.1841Z"/>
<path d="M110.511 1.64014C118.071 1.64014 124.551 3.08014 129.951 5.96013C135.351 8.84014 139.491 13.0161 142.371 18.4881C145.251 23.9601 146.691 30.5841 146.691 38.3601C146.691 46.1361 145.251 52.7601 142.371 58.2321C139.491 63.7041 135.351 67.8801 129.951 70.7601C124.551 73.6401 118.071 75.0801 110.511 75.0801C103.023 75.0801 96.5427 73.6401 91.0707 70.7601C85.6707 67.8801 81.4947 63.7041 78.5427 58.2321C75.6627 52.7601 74.2227 46.1361 74.2227 38.3601C74.2227 30.5841 75.6627 23.9601 78.5427 18.4881C81.4947 13.0161 85.6707 8.84014 91.0707 5.96013C96.5427 3.08014 103.023 1.64014 110.511 1.64014ZM110.511 20.5401C108.063 20.5401 106.047 21.1881 104.463 22.4841C102.951 23.7081 101.799 25.6161 101.007 28.2081C100.287 30.8001 99.9267 34.1841 99.9267 38.3601C99.9267 42.4641 100.287 45.8481 101.007 48.5121C101.799 51.1041 102.951 53.0481 104.463 54.3441C106.047 55.5681 108.063 56.1801 110.511 56.1801C112.959 56.1801 114.939 55.5681 116.451 54.3441C118.035 53.0481 119.187 51.1041 119.907 48.5121C120.627 45.8481 120.987 42.4641 120.987 38.3601C120.987 34.1841 120.627 30.8001 119.907 28.2081C119.187 25.6161 118.035 23.7081 116.451 22.4841C114.939 21.1881 112.959 20.5401 110.511 20.5401Z"/>
<path d="M224.938 2.72014V74.0001H197.722L180.658 41.6001L176.77 32.8521H176.554L176.986 47.5401V74.0001H155.17V2.72014H182.386L199.45 35.2281L203.338 43.8681H203.554L203.122 29.1801V2.72014H224.938Z"/>
<path d="M302.276 2.72014V21.1881H280.028V74.0001H254.864V21.1881H232.508V2.72014H302.276Z"/>
<path d="M371.442 74.0001H345.738L342.498 60.3921H323.274L319.926 74.0001H294.87L317.982 2.72014H348.222L371.442 74.0001ZM327.054 44.7321H338.826L332.994 20.0001L327.054 44.7321Z"/>
<path d="M439.923 52.1841C438.627 57.7281 436.395 62.1921 433.227 65.5761C430.131 68.9601 426.351 71.4081 421.887 72.9201C417.423 74.3601 412.455 75.0801 406.983 75.0801C399.495 75.0801 393.015 73.6401 387.543 70.7601C382.143 67.8801 377.967 63.7041 375.015 58.2321C372.135 52.7601 370.695 46.1361 370.695 38.3601C370.695 30.5841 372.135 23.9601 375.015 18.4881C377.967 13.0161 382.143 8.84014 387.543 5.96013C393.015 3.08014 399.495 1.64014 406.983 1.64014C412.239 1.64014 417.135 2.39614 421.671 3.90813C426.207 5.34814 430.023 7.65214 433.119 10.8201C436.287 13.9881 438.375 18.1281 439.383 23.2401L417.783 31.6641C417.207 26.9841 416.019 23.9601 414.219 22.5921C412.491 21.2241 410.295 20.5401 407.631 20.5401C405.183 20.5401 403.095 21.1881 401.367 22.4841C399.711 23.7081 398.451 25.6521 397.587 28.3161C396.795 30.9081 396.399 34.2561 396.399 38.3601C396.399 42.3921 396.759 45.7401 397.479 48.4041C398.271 51.0681 399.531 53.0481 401.259 54.3441C402.987 55.5681 405.291 56.1801 408.171 56.1801C410.763 56.1801 412.887 55.4241 414.543 53.9121C416.199 52.3281 417.243 49.8441 417.675 46.4601L439.923 52.1841Z"/>
<path d="M512.581 2.72014V21.1881H490.333V74.0001H465.169V21.1881H442.813V2.72014H512.581Z"/>
</mask>
<path d="M70.3608 52.1841C69.0648 57.7281 66.8328 62.1921 63.6648 65.5761C60.5688 68.9601 56.7888 71.4081 52.3248 72.9201C47.8608 74.3601 42.8928 75.0801 37.4208 75.0801C29.9328 75.0801 23.4528 73.6401 17.9808 70.7601C12.5808 67.8801 8.40481 63.7041 5.45281 58.2321C2.57281 52.7601 1.13281 46.1361 1.13281 38.3601C1.13281 30.5841 2.57281 23.9601 5.45281 18.4881C8.40481 13.0161 12.5808 8.84014 17.9808 5.96013C23.4528 3.08014 29.9328 1.64014 37.4208 1.64014C42.6768 1.64014 47.5728 2.39614 52.1088 3.90813C56.6448 5.34814 60.4608 7.65214 63.5568 10.8201C66.7248 13.9881 68.8128 18.1281 69.8208 23.2401L48.2208 31.6641C47.6448 26.9841 46.4568 23.9601 44.6568 22.5921C42.9288 21.2241 40.7328 20.5401 38.0688 20.5401C35.6208 20.5401 33.5328 21.1881 31.8048 22.4841C30.1488 23.7081 28.8888 25.6521 28.0248 28.3161C27.2328 30.9081 26.8368 34.2561 26.8368 38.3601C26.8368 42.3921 27.1968 45.7401 27.9168 48.4041C28.7088 51.0681 29.9688 53.0481 31.6968 54.3441C33.4248 55.5681 35.7288 56.1801 38.6088 56.1801C41.2008 56.1801 43.3248 55.4241 44.9808 53.9121C46.6368 52.3281 47.6808 49.8441 48.1128 46.4601L70.3608 52.1841Z" stroke="white" stroke-opacity="0.3" stroke-width="2" mask="url(#path-1-outside-1_3078_91628)"/>
<path d="M110.511 1.64014C118.071 1.64014 124.551 3.08014 129.951 5.96013C135.351 8.84014 139.491 13.0161 142.371 18.4881C145.251 23.9601 146.691 30.5841 146.691 38.3601C146.691 46.1361 145.251 52.7601 142.371 58.2321C139.491 63.7041 135.351 67.8801 129.951 70.7601C124.551 73.6401 118.071 75.0801 110.511 75.0801C103.023 75.0801 96.5427 73.6401 91.0707 70.7601C85.6707 67.8801 81.4947 63.7041 78.5427 58.2321C75.6627 52.7601 74.2227 46.1361 74.2227 38.3601C74.2227 30.5841 75.6627 23.9601 78.5427 18.4881C81.4947 13.0161 85.6707 8.84014 91.0707 5.96013C96.5427 3.08014 103.023 1.64014 110.511 1.64014ZM110.511 20.5401C108.063 20.5401 106.047 21.1881 104.463 22.4841C102.951 23.7081 101.799 25.6161 101.007 28.2081C100.287 30.8001 99.9267 34.1841 99.9267 38.3601C99.9267 42.4641 100.287 45.8481 101.007 48.5121C101.799 51.1041 102.951 53.0481 104.463 54.3441C106.047 55.5681 108.063 56.1801 110.511 56.1801C112.959 56.1801 114.939 55.5681 116.451 54.3441C118.035 53.0481 119.187 51.1041 119.907 48.5121C120.627 45.8481 120.987 42.4641 120.987 38.3601C120.987 34.1841 120.627 30.8001 119.907 28.2081C119.187 25.6161 118.035 23.7081 116.451 22.4841C114.939 21.1881 112.959 20.5401 110.511 20.5401Z" stroke="white" stroke-opacity="0.3" stroke-width="2" mask="url(#path-1-outside-1_3078_91628)"/>
<path d="M224.938 2.72014V74.0001H197.722L180.658 41.6001L176.77 32.8521H176.554L176.986 47.5401V74.0001H155.17V2.72014H182.386L199.45 35.2281L203.338 43.8681H203.554L203.122 29.1801V2.72014H224.938Z" stroke="white" stroke-opacity="0.3" stroke-width="2" mask="url(#path-1-outside-1_3078_91628)"/>
<path d="M302.276 2.72014V21.1881H280.028V74.0001H254.864V21.1881H232.508V2.72014H302.276Z" stroke="white" stroke-opacity="0.3" stroke-width="2" mask="url(#path-1-outside-1_3078_91628)"/>
<path d="M371.442 74.0001H345.738L342.498 60.3921H323.274L319.926 74.0001H294.87L317.982 2.72014H348.222L371.442 74.0001ZM327.054 44.7321H338.826L332.994 20.0001L327.054 44.7321Z" stroke="white" stroke-opacity="0.3" stroke-width="2" mask="url(#path-1-outside-1_3078_91628)"/>
<path d="M439.923 52.1841C438.627 57.7281 436.395 62.1921 433.227 65.5761C430.131 68.9601 426.351 71.4081 421.887 72.9201C417.423 74.3601 412.455 75.0801 406.983 75.0801C399.495 75.0801 393.015 73.6401 387.543 70.7601C382.143 67.8801 377.967 63.7041 375.015 58.2321C372.135 52.7601 370.695 46.1361 370.695 38.3601C370.695 30.5841 372.135 23.9601 375.015 18.4881C377.967 13.0161 382.143 8.84014 387.543 5.96013C393.015 3.08014 399.495 1.64014 406.983 1.64014C412.239 1.64014 417.135 2.39614 421.671 3.90813C426.207 5.34814 430.023 7.65214 433.119 10.8201C436.287 13.9881 438.375 18.1281 439.383 23.2401L417.783 31.6641C417.207 26.9841 416.019 23.9601 414.219 22.5921C412.491 21.2241 410.295 20.5401 407.631 20.5401C405.183 20.5401 403.095 21.1881 401.367 22.4841C399.711 23.7081 398.451 25.6521 397.587 28.3161C396.795 30.9081 396.399 34.2561 396.399 38.3601C396.399 42.3921 396.759 45.7401 397.479 48.4041C398.271 51.0681 399.531 53.0481 401.259 54.3441C402.987 55.5681 405.291 56.1801 408.171 56.1801C410.763 56.1801 412.887 55.4241 414.543 53.9121C416.199 52.3281 417.243 49.8441 417.675 46.4601L439.923 52.1841Z" stroke="white" stroke-opacity="0.3" stroke-width="2" mask="url(#path-1-outside-1_3078_91628)"/>
<path d="M512.581 2.72014V21.1881H490.333V74.0001H465.169V21.1881H442.813V2.72014H512.581Z" stroke="white" stroke-opacity="0.3" stroke-width="2" mask="url(#path-1-outside-1_3078_91628)"/>
</svg>

<svg xmlns="http://www.w3.org/2000/svg" width="514" height="77" fill="none" xmlns:v="https://vecta.io/nano"><mask id="A" maskUnits="userSpaceOnUse" x=".133" y=".64" width="514" height="76" fill="#000"><path fill="#fff" d="M.133.64h514v76h-514z"/><path d="M70.361 52.184c-1.296 5.544-3.528 10.008-6.696 13.392-3.096 3.384-6.876 5.832-11.34 7.344-4.464 1.44-9.432 2.16-14.904 2.16-7.488 0-13.968-1.44-19.44-4.32-5.4-2.88-9.576-7.056-12.528-12.528-2.88-5.472-4.32-12.096-4.32-19.872s1.44-14.4 4.32-19.872C8.405 13.016 12.581 8.84 17.981 5.96c5.472-2.88 11.952-4.32 19.44-4.32 5.256 0 10.152.756 14.688 2.268 4.536 1.44 8.352 3.744 11.448 6.912 3.168 3.168 5.256 7.308 6.264 12.42l-21.6 8.424c-.576-4.68-1.764-7.704-3.564-9.072-1.728-1.368-3.924-2.052-6.588-2.052-2.448 0-4.536.648-6.264 1.944-1.656 1.224-2.916 3.168-3.78 5.832-.792 2.592-1.188 5.94-1.188 10.044 0 4.032.36 7.38 1.08 10.044.792 2.664 2.052 4.644 3.78 5.94 1.728 1.224 4.032 1.836 6.912 1.836 2.592 0 4.716-.756 6.372-2.268 1.656-1.584 2.7-4.068 3.132-7.452l22.248 5.724zm40.15-50.544c7.56 0 14.04 1.44 19.44 4.32s9.54 7.056 12.42 12.528 4.32 12.096 4.32 19.872-1.44 14.4-4.32 19.872-7.02 9.648-12.42 12.528-11.88 4.32-19.44 4.32c-7.488 0-13.968-1.44-19.44-4.32-5.4-2.88-9.576-7.056-12.528-12.528-2.88-5.472-4.32-12.096-4.32-19.872s1.44-14.4 4.32-19.872c2.952-5.472 7.128-9.648 12.528-12.528 5.472-2.88 11.952-4.32 19.44-4.32zm0 18.9c-2.448 0-4.464.648-6.048 1.944-1.512 1.224-2.664 3.132-3.456 5.724-.72 2.592-1.08 5.976-1.08 10.152 0 4.104.36 7.488 1.08 10.152.792 2.592 1.944 4.536 3.456 5.832 1.584 1.224 3.6 1.836 6.048 1.836s4.428-.612 5.94-1.836c1.584-1.296 2.736-3.24 3.456-5.832.72-2.664 1.08-6.048 1.08-10.152 0-4.176-.36-7.56-1.08-10.152s-1.872-4.5-3.456-5.724c-1.512-1.296-3.492-1.944-5.94-1.944zM224.938 2.72V74h-27.216l-17.064-32.4-3.888-8.748h-.216l.432 14.688V74H155.17V2.72h27.216l17.064 32.508 3.888 8.64h.216l-.432-14.688V2.72h21.816zm77.338 0v18.468h-22.248V74h-25.164V21.188h-22.356V2.72h69.768zM371.442 74h-25.704l-3.24-13.608h-19.224L319.926 74H294.87l23.112-71.28h30.24L371.442 74zm-44.388-29.268h11.772L332.994 20l-5.94 24.732zm112.869 7.452c-1.296 5.544-3.528 10.008-6.696 13.392-3.096 3.384-6.876 5.832-11.34 7.344-4.464 1.44-9.432 2.16-14.904 2.16-7.488 0-13.968-1.44-19.44-4.32-5.4-2.88-9.576-7.056-12.528-12.528-2.88-5.472-4.32-12.096-4.32-19.872s1.44-14.4 4.32-19.872c2.952-5.472 7.128-9.648 12.528-12.528 5.472-2.88 11.952-4.32 19.44-4.32 5.256 0 10.152.756 14.688 2.268 4.536 1.44 8.352 3.744 11.448 6.912 3.168 3.168 5.256 7.308 6.264 12.42l-21.6 8.424c-.576-4.68-1.764-7.704-3.564-9.072-1.728-1.368-3.924-2.052-6.588-2.052-2.448 0-4.536.648-6.264 1.944-1.656 1.224-2.916 3.168-3.78 5.832-.792 2.592-1.188 5.94-1.188 10.044 0 4.032.36 7.38 1.08 10.044.792 2.664 2.052 4.644 3.78 5.94 1.728 1.224 4.032 1.836 6.912 1.836 2.592 0 4.716-.756 6.372-2.268 1.656-1.584 2.7-4.068 3.132-7.452l22.248 5.724zM512.581 2.72v18.468h-22.248V74h-25.164V21.188h-22.356V2.72h69.768z"/></mask><path d="M70.361 52.184c-1.296 5.544-3.528 10.008-6.696 13.392-3.096 3.384-6.876 5.832-11.34 7.344-4.464 1.44-9.432 2.16-14.904 2.16-7.488 0-13.968-1.44-19.44-4.32-5.4-2.88-9.576-7.056-12.528-12.528-2.88-5.472-4.32-12.096-4.32-19.872s1.44-14.4 4.32-19.872C8.405 13.016 12.581 8.84 17.981 5.96c5.472-2.88 11.952-4.32 19.44-4.32 5.256 0 10.152.756 14.688 2.268 4.536 1.44 8.352 3.744 11.448 6.912 3.168 3.168 5.256 7.308 6.264 12.42l-21.6 8.424c-.576-4.68-1.764-7.704-3.564-9.072-1.728-1.368-3.924-2.052-6.588-2.052-2.448 0-4.536.648-6.264 1.944-1.656 1.224-2.916 3.168-3.78 5.832-.792 2.592-1.188 5.94-1.188 10.044 0 4.032.36 7.38 1.08 10.044.792 2.664 2.052 4.644 3.78 5.94 1.728 1.224 4.032 1.836 6.912 1.836 2.592 0 4.716-.756 6.372-2.268 1.656-1.584 2.7-4.068 3.132-7.452l22.248 5.724zm40.15-50.544c7.56 0 14.04 1.44 19.44 4.32s9.54 7.056 12.42 12.528 4.32 12.096 4.32 19.872-1.44 14.4-4.32 19.872-7.02 9.648-12.42 12.528-11.88 4.32-19.44 4.32c-7.488 0-13.968-1.44-19.44-4.32-5.4-2.88-9.576-7.056-12.528-12.528-2.88-5.472-4.32-12.096-4.32-19.872s1.44-14.4 4.32-19.872c2.952-5.472 7.128-9.648 12.528-12.528 5.472-2.88 11.952-4.32 19.44-4.32zm0 18.9c-2.448 0-4.464.648-6.048 1.944-1.512 1.224-2.664 3.132-3.456 5.724-.72 2.592-1.08 5.976-1.08 10.152 0 4.104.36 7.488 1.08 10.152.792 2.592 1.944 4.536 3.456 5.832 1.584 1.224 3.6 1.836 6.048 1.836s4.428-.612 5.94-1.836c1.584-1.296 2.736-3.24 3.456-5.832.72-2.664 1.08-6.048 1.08-10.152 0-4.176-.36-7.56-1.08-10.152s-1.872-4.5-3.456-5.724c-1.512-1.296-3.492-1.944-5.94-1.944zM224.938 2.72V74h-27.216l-17.064-32.4-3.888-8.748h-.216l.432 14.688V74H155.17V2.72h27.216l17.064 32.508 3.888 8.64h.216l-.432-14.688V2.72h21.816zm77.338 0v18.468h-22.248V74h-25.164V21.188h-22.356V2.72h69.768zM371.442 74h-25.704l-3.24-13.608h-19.224L319.926 74H294.87l23.112-71.28h30.24L371.442 74zm-44.388-29.268h11.772L332.994 20l-5.94 24.732zm112.869 7.452c-1.296 5.544-3.528 10.008-6.696 13.392-3.096 3.384-6.876 5.832-11.34 7.344-4.464 1.44-9.432 2.16-14.904 2.16-7.488 0-13.968-1.44-19.44-4.32-5.4-2.88-9.576-7.056-12.528-12.528-2.88-5.472-4.32-12.096-4.32-19.872s1.44-14.4 4.32-19.872c2.952-5.472 7.128-9.648 12.528-12.528 5.472-2.88 11.952-4.32 19.44-4.32 5.256 0 10.152.756 14.688 2.268 4.536 1.44 8.352 3.744 11.448 6.912 3.168 3.168 5.256 7.308 6.264 12.42l-21.6 8.424c-.576-4.68-1.764-7.704-3.564-9.072-1.728-1.368-3.924-2.052-6.588-2.052-2.448 0-4.536.648-6.264 1.944-1.656 1.224-2.916 3.168-3.78 5.832-.792 2.592-1.188 5.94-1.188 10.044 0 4.032.36 7.38 1.08 10.044.792 2.664 2.052 4.644 3.78 5.94 1.728 1.224 4.032 1.836 6.912 1.836 2.592 0 4.716-.756 6.372-2.268 1.656-1.584 2.7-4.068 3.132-7.452l22.248 5.724zM512.581 2.72v18.468h-22.248V74h-25.164V21.188h-22.356V2.72h69.768z" stroke="#fff" stroke-opacity=".3" stroke-width="2" mask="url(#A)"/></svg>
